src/assets/RetailMeNot_logo.svg

<?xml version="1.0" encoding="UTF-8" standalone="no"?>
<!-- Created with Inkscape (http://www.inkscape.org/) -->

<svg
   width="944.88184"
   height="168.66522"
   viewBox="0 0 249.99998 44.626006"
   version="1.1"
   id="svg1"
   xml:space="preserve"
   xmlns="http://www.w3.org/2000/svg"
   xmlns:svg="http://www.w3.org/2000/svg"><defs
     id="defs1" /><g
     id="layer1"
     transform="translate(-285.64872,-178.7547)"><g
       transform="matrix(1.3296837,0,0,1.3296837,277.68125,68.098924)"
       id="g10"
       style="clip-rule:evenodd;fill:#eeeeee;fill-opacity:1;fill-rule:evenodd;stroke-linejoin:round;stroke-miterlimit:1.41421">
        <path
   d="m 190.437,109.074 c -0.58,0 -1.11,1.187 -2.221,1.187 -1.994,0 0.025,-4.872 1.438,-4.872 0.557,0 0.644,0.592 0.118,1.228 -0.276,0.334 -0.067,0.741 0.564,0.741 2.347,0 2.802,-3.58 -0.328,-3.58 -2.075,0 -4.235,2.256 -4.909,4.397 -0.648,0.863 -1.419,1.783 -1.957,1.783 -1.141,0 1.363,-2.736 1.363,-4.556 0,-0.87 -0.574,-1.528 -1.615,-1.528 -0.96,0 -2.06,0.559 -3.28,2.09 0.254,-0.663 0.504,-1.321 0.604,-1.61 0.207,-0.596 -0.126,-0.581 -0.984,-0.429 -0.682,0.12 -1.015,0.195 -1.262,0.681 -1.59,3.13 -3.029,5.2 -3.811,5.2 -0.591,0 -0.548,-0.555 -0.038,-1.715 0.51,-1.159 1.906,-3.989 1.906,-3.989 0,10e-4 -0.283,-0.185 -1.071,-0.185 -0.789,0 -1.479,0.115 -1.933,0.967 -0.232,0.434 -1.191,2.537 -1.641,3.887 -0.649,1.948 0.139,3.182 1.521,3.182 1.491,0 2.67,-1.425 3.713,-3.039 -0.316,0.841 -0.69,1.838 -0.835,2.337 -0.133,0.454 0.037,0.57 0.359,0.57 0.494,0 0.911,-0.031 1.293,-0.066 0.382,-0.034 0.505,-0.208 0.695,-0.693 0.303,-0.776 0.695,-1.6 1.249,-2.707 1.079,-2.159 1.771,-2.588 2.228,-2.588 0.359,0 0.614,0.345 0.262,1.055 -0.666,1.343 -1.575,2.439 -1.575,3.59 0,0.858 0.627,1.614 1.578,1.614 1.323,0 2.366,-0.805 3.139,-1.769 0.344,1.08 1.378,1.795 2.641,1.795 2.77,0 3.799,-2.978 2.789,-2.978 z"
   style="fill:#eeeeee;fill-opacity:1;fill-rule:nonzero"
   id="path1" />
        <path
   d="m 174.371,101.697 c -0.187,0.834 0.289,1.511 1.062,1.511 0.774,0 1.552,-0.677 1.738,-1.511 0.187,-0.834 -0.289,-1.511 -1.063,-1.511 -0.773,0 -1.551,0.677 -1.737,1.511 z"
   style="fill:#eeeeee;fill-opacity:1;fill-rule:nonzero"
   id="path2" />
        <path
   d="m 192.954,109.164 c -0.738,0 -1.481,0.646 -1.659,1.443 -0.178,0.797 0.276,1.442 1.015,1.442 0.738,0 1.48,-0.645 1.658,-1.442 0.178,-0.797 -0.276,-1.443 -1.014,-1.443 z"
   style="fill:#eeeeee;fill-opacity:1;fill-rule:nonzero"
   id="path3" />
        <path
   d="m 23.903,97.898 c 1.641,-4.48 3.137,-8.771 3.998,-11.268 3.565,-0.409 5.393,0.692 5.393,3.365 0,2.606 -2.222,5.185 -6.931,6.984 -0.885,0.338 -1.715,0.647 -2.46,0.919 z m -8.414,9.289 c -2.079,4.287 -3.362,6.093 -4.997,6.347 -0.741,0.115 -1.317,-0.23 -1.317,-1.317 0,-1.19 1.264,-5.598 8.037,-9.134 -0.688,1.756 -1.292,3.216 -1.723,4.104 z m 19.912,6.922 c -1.363,-0.142 -2.421,-0.384 -3.426,-1.204 -0.916,-0.747 -1.629,-1.972 -2.209,-3.558 -1.239,-3.387 -2.467,-7.572 -3.068,-9.695 7.952,-2.802 11.675,-6.384 11.675,-10.406 0,-3.695 -3.015,-6.13 -9.709,-5.283 -2.96,0.375 -5.127,0.784 -7.42,1.23 -8.572,1.667 -11.786,5.371 -11.786,9.18 0,2.58 2.262,4.366 4.881,4.366 1.786,0 1.957,-0.993 1.428,-1.389 -1.111,-0.834 -1.776,-1.667 -1.776,-3.096 0,-2.24 1.684,-5.106 7.874,-6.481 0.401,-0.089 0.742,-0.166 1.047,-0.234 -1.027,2.901 -2.849,8.02 -4.507,12.427 -9.454,3.788 -12.413,8.976 -12.413,12.577 0,2.691 2.117,4.238 4.617,4.238 3.809,0 6.807,-2.553 9.206,-8.294 0.876,-2.095 1.835,-4.556 2.789,-7.089 0.608,2.237 1.724,6.149 2.916,9.298 0.689,1.82 1.313,3.127 2.248,4.061 1.133,1.129 2.656,1.693 4.458,1.693 2.143,0 3.433,-0.734 3.77,-1.25 0.39,-0.595 0.156,-1.012 -0.595,-1.091 z"
   style="fill:#eeeeee;fill-opacity:1;fill-rule:nonzero"
   id="path4" />
        <path
   d="m 124.646,96.828 c 1.902,0 0.421,4.993 -4.545,5.143 1.235,-2.665 3.269,-5.143 4.545,-5.143 z m 0.051,10.45 c -0.732,0 -1.793,1.174 -3.686,1.174 -1.287,0 -1.969,-0.822 -1.969,-2.537 0,-0.422 0.057,-0.879 0.159,-1.355 0.149,0.007 0.313,0.012 0.498,0.012 6.108,0 9.793,-3.53 9.793,-6.986 0,-2.499 -1.918,-3.752 -3.773,-3.752 -4.587,0 -10.082,5.422 -11.026,10.967 -1.3,2.252 -2.382,3.079 -3.071,3.045 -0.758,-0.038 -0.699,-1.082 0,-3.076 1.06,-3.02 2.575,-7.107 3.909,-10.256 2.645,-6.241 4.302,-9.694 4.523,-10.424 0.221,-0.73 -0.169,-0.839 -0.908,-0.73 -2.653,0.389 -4.144,0.273 -5.278,2.156 -1.779,2.953 -9.44,14.897 -9.44,14.897 0,0 2.272,-14.736 2.625,-16.261 0.189,-0.815 -0.257,-1.071 -0.962,-0.864 -0.858,0.253 -1.612,0.41 -2.761,0.789 -0.999,0.329 -1.225,0.67 -1.918,2.272 -0.361,0.834 -3.292,9.533 -5.363,13.925 -2.196,4.657 -3.938,7.383 -8.065,7.723 -1.114,0.092 -1.178,0.658 -0.871,1.363 0.644,1.477 2.247,2.348 3.711,2.348 2.574,0 4.402,-1.821 6.159,-6.046 1.455,-3.498 3.602,-9.544 5.198,-14.08 -1.327,7.059 -2.915,16.49 -3.139,18.955 -0.132,1.461 1.819,1.495 2.61,0.073 2.073,-3.732 6.509,-11.346 10.506,-18.254 -1.626,3.893 -3.541,8.54 -4.434,11.142 -0.611,1.913 -1.151,3.313 -1.151,5.062 0,2.02 1.403,3.227 2.93,3.227 1.585,0 3.39,-0.801 5.318,-3.241 0.578,2.04 2.097,3.297 4.676,3.297 3.357,0 5.856,-2.293 5.856,-3.757 0,-0.53 -0.252,-0.808 -0.656,-0.808 z"
   style="fill:#eeeeee;fill-opacity:1;fill-rule:nonzero"
   id="path5" />
        <path
   d="m 153.042,88.6 c 1.779,-1.287 3.152,-1.376 3.572,-1.721 0.643,-0.53 -0.228,-3.193 -2.722,-3.193 -3.98,0 -6.017,4.97 -7.615,9.356 -1.017,2.794 -2.151,6.253 -3.029,9.011 -0.015,0.048 -0.025,0.014 -0.022,-0.026 0.431,-6.145 1.161,-15.878 1.209,-16.966 0.025,-0.568 -0.014,-0.865 -0.266,-1.001 -0.112,-0.079 -0.378,-0.097 -0.528,-0.097 -0.535,0 -1.033,0.021 -1.53,0.038 -2.34,-0.001 -5.561,-0.003 -6.889,-0.003 -10.122,0 -9.364,9.469 -3.105,9.469 1.162,0 1.194,-1.128 0.632,-1.409 -2.272,-1.136 -2.74,-5.299 4.832,-5.299 0.982,0 1.579,0.003 2.055,0.008 -0.944,3.234 -2.724,8.698 -4.969,13.507 -2.398,5.136 -3.76,7.055 -7.496,8.014 -1.083,0.278 -1.007,0.882 -0.707,1.59 0.353,0.833 1.717,1.741 3.382,1.741 2.979,0 4.544,-2.17 6.146,-6.537 1.556,-4.236 2.866,-8.337 3.836,-11.513 0.003,-0.012 -0.002,-0.039 0.011,-0.037 0.02,0.004 -0.002,0.04 -0.003,0.06 -0.262,6.842 -0.524,15.557 -0.568,17.146 -0.033,1.205 0.445,1.206 1.381,0.801 1.919,-0.828 2.564,-1.114 3.079,-2.676 1.616,-4.896 3.161,-9.01 4.972,-13.599 1.136,-2.878 2.863,-5.594 4.342,-6.664 z"
   style="fill:#eeeeee;fill-opacity:1;fill-rule:nonzero"
   id="path6" />
        <path
   d="m 152.815,108.262 c -2.979,0 0.959,-11.13 3.634,-11.13 2.474,0 -0.492,11.13 -3.634,11.13 z m 5.769,-14.122 c -7.965,0 -11.878,9.24 -11.878,13.21 0,2.827 1.793,4.572 4.822,4.572 6.663,0 10.489,-9.087 10.489,-13.277 0,-2.827 -1.313,-4.505 -3.433,-4.505 z"
   style="fill:#eeeeee;fill-opacity:1;fill-rule:nonzero"
   id="path7" />
        <path
   d="m 179.595,89.307 c -0.661,0 -3,0.064 -6.543,0.186 0.573,-1.389 1.037,-2.517 1.344,-3.283 0.227,-0.568 0.115,-0.908 -0.493,-0.908 -0.542,0 -1.476,0.189 -2.612,0.491 -1.508,0.403 -1.69,0.672 -2.524,2.425 -0.177,0.372 -0.385,0.86 -0.624,1.454 -3.44,0.132 -7.484,0.296 -11.921,0.493 -1.74,0.077 -4.165,2.246 -2.07,2.246 4.172,0 8.687,0.154 12.821,0.282 -0.644,1.697 -1.428,3.78 -2.383,6.238 -1.197,3.082 -2.916,6.777 -2.916,9.314 0,1.893 1.288,3.51 3.559,3.51 2.84,0 4.013,-1.675 3.71,-2.621 -0.175,-0.55 -0.681,-0.531 -1.779,-0.531 -0.757,0 -1.022,-0.517 -1.022,-1.097 0,-0.872 0.409,-1.773 0.883,-3.009 1.604,-4.179 3.276,-8.307 4.657,-11.676 1.153,0.025 2.243,0.04 3.244,0.04 2.449,0 3.407,-0.071 4.265,-0.727 0.721,-0.551 1.06,-0.858 1.464,-1.363 0.421,-0.526 0.606,-1.464 -1.06,-1.464 z"
   style="fill:#eeeeee;fill-opacity:1;fill-rule:nonzero"
   id="path8" />
        <path
   d="m 78.742,93.367 c 1.311,0 2.629,-1.209 2.945,-2.701 0.315,-1.491 -0.491,-2.7 -1.801,-2.7 -1.311,0 -2.629,1.209 -2.945,2.7 -0.316,1.492 0.49,2.701 1.801,2.701 z"
   style="fill:#eeeeee;fill-opacity:1;fill-rule:nonzero"
   id="path9" />
        <path
   d="m 58.692,108.187 c -2.903,0 2.006,-10.98 4.77,-10.98 1.067,0 1.432,0.704 1.578,1.266 -2.262,5.31 -4.124,9.714 -6.348,9.714 z M 41.427,96.677 c 1.931,0 0.757,5.377 -4.392,5.377 -0.02,0 -0.038,-0.001 -0.058,-0.001 1.198,-2.815 3.175,-5.376 4.45,-5.376 z m 51.794,-9.238 c 1.118,0 -1.939,8.042 -7.584,12.482 2.434,-5.89 6.25,-12.482 7.584,-12.482 z m -8.91,21.253 c -0.635,-0.106 -0.808,-0.523 -0.808,-1.242 0,-0.888 0.251,-2.107 0.674,-3.508 10.397,-4.863 17.197,-19.763 9.46,-19.763 -5.139,0 -11.572,11.434 -13.617,19.159 -1.145,1.84 -3.099,4.622 -4.442,4.622 -1.061,0 -0.774,-1.402 -0.013,-3.474 1.78,-4.847 4.379,-9.832 4.379,-9.832 0,0 -1.312,-0.555 -3.079,-0.252 -1.165,0.2 -1.679,0.793 -2.223,1.83 -0.066,0.084 -0.141,0.209 -0.226,0.39 -3.369,7.231 -5.483,11.338 -7.395,11.338 -1.344,0 -0.571,-1.478 0.189,-3.55 1.78,-4.846 4.38,-9.831 4.38,-9.831 0,0 -1.313,-0.556 -3.08,-0.253 -1.111,0.191 -1.63,0.741 -2.147,1.691 -0.349,-0.985 -1.108,-1.977 -2.749,-1.977 -4.987,0 -8.75,6.429 -9.801,10.953 -1.027,1.588 -2.356,3.27 -3.375,3.27 -1.01,0 -0.994,-0.873 -0.202,-2.933 1.268,-3.298 3.722,-9.01 5.677,-13.488 4.906,0.108 9.552,0.211 12.194,0.211 2.449,0 3.407,-0.07 4.265,-0.727 0.721,-0.551 1.06,-0.858 1.464,-1.363 0.421,-0.526 0.606,-1.464 -1.06,-1.464 -0.913,0 -7.638,0.223 -15.627,0.528 0.599,-1.36 1.083,-2.448 1.366,-3.082 0.172,-0.384 -0.101,-0.808 -0.707,-0.757 -0.928,0.077 -1.262,0.202 -2.271,0.454 -1.515,0.379 -1.892,0.824 -2.726,2.576 -0.115,0.241 -0.273,0.582 -0.46,0.996 -3.184,0.126 -6.422,0.261 -9.46,0.396 -1.74,0.077 -3.711,1.994 -1.616,1.994 2.623,0 6.203,0.061 9.955,0.138 -0.653,1.496 -1.381,3.206 -2,4.733 -0.069,0.126 -0.141,0.274 -0.218,0.45 -2.537,5.793 -6.412,11.868 -10.69,11.868 -1.665,0 -2.372,-1.102 -2.372,-2.502 0,-0.541 0.076,-1.127 0.209,-1.733 0.162,0.009 0.343,0.015 0.548,0.015 6.108,0 9.718,-3.757 9.718,-7.214 0,-2.221 -1.843,-3.525 -3.698,-3.525 -5.036,0 -11.169,6.536 -11.169,12.594 0,3.256 1.754,5.415 4.732,5.415 4.002,0 7.104,-2.453 9.314,-5.151 -0.119,0.617 -0.189,1.215 -0.189,1.782 0,1.893 1.085,3.281 2.852,3.281 1.998,0 3.729,-1.216 5.339,-3.325 0.323,2.105 1.539,3.325 3.344,3.325 2.113,0 3.943,-1.619 5.388,-3.535 0.083,1.762 0.711,3.535 3.017,3.535 1.647,0 3.329,-0.881 5.332,-3.679 0.055,1.831 0.814,3.755 2.997,3.755 2.107,0 3.986,-1.503 5.698,-3.812 0.161,2.301 1.398,3.673 3.175,3.673 1.83,0 3.355,-1.186 3.268,-2.495 -0.055,-0.836 -0.908,-0.404 -1.514,-0.505 z"
   style="fill:#eeeeee;fill-opacity:1;fill-rule:nonzero"
   id="path10" />
    </g></g><style
     type="text/css"
     id="style1">
	.st0{fill:#8427E2;}
</style><style
     type="text/css"
     id="style1-5">
	.st0{fill:#B12422;}
</style><style
     type="text/css"
     id="style1-2">
	.st0{fill:#00AFB4;}
</style></svg>

<?xml version="1.0" encoding="UTF-8" standalone="no"?>
<!DOCTYPE svg PUBLIC "-//W3C//DTD SVG 1.1//EN" "http://www.w3.org/Graphics/SVG/1.1/DTD/svg11.dtd">
<svg width="100%" height="100%" viewBox="0 0 188 34" version="1.1" xmlns="http://www.w3.org/2000/svg" xmlns:xlink="http://www.w3.org/1999/xlink" xml:space="preserve" xmlns:serif="http://www.serif.com/" style="fill-rule:evenodd;clip-rule:evenodd;stroke-linejoin:round;stroke-miterlimit:1.41421;">
    <g transform="matrix(1,0,0,1,-6,-83)">
        <path d="M190.437,109.074C189.857,109.074 189.327,110.261 188.216,110.261C186.222,110.261 188.241,105.389 189.654,105.389C190.211,105.389 190.298,105.981 189.772,106.617C189.496,106.951 189.705,107.358 190.336,107.358C192.683,107.358 193.138,103.778 190.008,103.778C187.933,103.778 185.773,106.034 185.099,108.175C184.451,109.038 183.68,109.958 183.142,109.958C182.001,109.958 184.505,107.222 184.505,105.402C184.505,104.532 183.931,103.874 182.89,103.874C181.93,103.874 180.83,104.433 179.61,105.964C179.864,105.301 180.114,104.643 180.214,104.354C180.421,103.758 180.088,103.773 179.23,103.925C178.548,104.045 178.215,104.12 177.968,104.606C176.378,107.736 174.939,109.806 174.157,109.806C173.566,109.806 173.609,109.251 174.119,108.091C174.629,106.932 176.025,104.102 176.025,104.102C176.025,104.103 175.742,103.917 174.954,103.917C174.165,103.917 173.475,104.032 173.021,104.884C172.789,105.318 171.83,107.421 171.38,108.771C170.731,110.719 171.519,111.953 172.901,111.953C174.392,111.953 175.571,110.528 176.614,108.914C176.298,109.755 175.924,110.752 175.779,111.251C175.646,111.705 175.816,111.821 176.138,111.821C176.632,111.821 177.049,111.79 177.431,111.755C177.813,111.721 177.936,111.547 178.126,111.062C178.429,110.286 178.821,109.462 179.375,108.355C180.454,106.196 181.146,105.767 181.603,105.767C181.962,105.767 182.217,106.112 181.865,106.822C181.199,108.165 180.29,109.261 180.29,110.412C180.29,111.27 180.917,112.026 181.868,112.026C183.191,112.026 184.234,111.221 185.007,110.257C185.351,111.337 186.385,112.052 187.648,112.052C190.418,112.052 191.447,109.074 190.437,109.074Z" style="fill:rgb(75,35,84);fill-rule:nonzero;"/>
        <path d="M174.371,101.697C174.184,102.531 174.66,103.208 175.433,103.208C176.207,103.208 176.985,102.531 177.171,101.697C177.358,100.863 176.882,100.186 176.108,100.186C175.335,100.186 174.557,100.863 174.371,101.697Z" style="fill:rgb(75,35,84);fill-rule:nonzero;"/>
        <path d="M192.954,109.164C192.216,109.164 191.473,109.81 191.295,110.607C191.117,111.404 191.571,112.049 192.31,112.049C193.048,112.049 193.79,111.404 193.968,110.607C194.146,109.81 193.692,109.164 192.954,109.164Z" style="fill:rgb(75,35,84);fill-rule:nonzero;"/>
        <path d="M23.903,97.898C25.544,93.418 27.04,89.127 27.901,86.63C31.466,86.221 33.294,87.322 33.294,89.995C33.294,92.601 31.072,95.18 26.363,96.979C25.478,97.317 24.648,97.626 23.903,97.898ZM15.489,107.187C13.41,111.474 12.127,113.28 10.492,113.534C9.751,113.649 9.175,113.304 9.175,112.217C9.175,111.027 10.439,106.619 17.212,103.083C16.524,104.839 15.92,106.299 15.489,107.187ZM35.401,114.109C34.038,113.967 32.98,113.725 31.975,112.905C31.059,112.158 30.346,110.933 29.766,109.347C28.527,105.96 27.299,101.775 26.698,99.652C34.65,96.85 38.373,93.268 38.373,89.246C38.373,85.551 35.358,83.116 28.664,83.963C25.704,84.338 23.537,84.747 21.244,85.193C12.672,86.86 9.458,90.564 9.458,94.373C9.458,96.953 11.72,98.739 14.339,98.739C16.125,98.739 16.296,97.746 15.767,97.35C14.656,96.516 13.991,95.683 13.991,94.254C13.991,92.014 15.675,89.148 21.865,87.773C22.266,87.684 22.607,87.607 22.912,87.539C21.885,90.44 20.063,95.559 18.405,99.966C8.951,103.754 5.992,108.942 5.992,112.543C5.992,115.234 8.109,116.781 10.609,116.781C14.418,116.781 17.416,114.228 19.815,108.487C20.691,106.392 21.65,103.931 22.604,101.398C23.212,103.635 24.328,107.547 25.52,110.696C26.209,112.516 26.833,113.823 27.768,114.757C28.901,115.886 30.424,116.45 32.226,116.45C34.369,116.45 35.659,115.716 35.996,115.2C36.386,114.605 36.152,114.188 35.401,114.109Z" style="fill:rgb(75,35,84);fill-rule:nonzero;"/>
        <path d="M124.646,96.828C126.548,96.828 125.067,101.821 120.101,101.971C121.336,99.306 123.37,96.828 124.646,96.828ZM124.697,107.278C123.965,107.278 122.904,108.452 121.011,108.452C119.724,108.452 119.042,107.63 119.042,105.915C119.042,105.493 119.099,105.036 119.201,104.56C119.35,104.567 119.514,104.572 119.699,104.572C125.807,104.572 129.492,101.042 129.492,97.586C129.492,95.087 127.574,93.834 125.719,93.834C121.132,93.834 115.637,99.256 114.693,104.801C113.393,107.053 112.311,107.88 111.622,107.846C110.864,107.808 110.923,106.764 111.622,104.77C112.682,101.75 114.197,97.663 115.531,94.514C118.176,88.273 119.833,84.82 120.054,84.09C120.275,83.36 119.885,83.251 119.146,83.36C116.493,83.749 115.002,83.633 113.868,85.516C112.089,88.469 104.428,100.413 104.428,100.413C104.428,100.413 106.7,85.677 107.053,84.152C107.242,83.337 106.796,83.081 106.091,83.288C105.233,83.541 104.479,83.698 103.33,84.077C102.331,84.406 102.105,84.747 101.412,86.349C101.051,87.183 98.12,95.882 96.049,100.274C93.853,104.931 92.111,107.657 87.984,107.997C86.87,108.089 86.806,108.655 87.113,109.36C87.757,110.837 89.36,111.708 90.824,111.708C93.398,111.708 95.226,109.887 96.983,105.662C98.438,102.164 100.585,96.118 102.181,91.582C100.854,98.641 99.266,108.072 99.042,110.537C98.91,111.998 100.861,112.032 101.652,110.61C103.725,106.878 108.161,99.264 112.158,92.356C110.532,96.249 108.617,100.896 107.724,103.498C107.113,105.411 106.573,106.811 106.573,108.56C106.573,110.58 107.976,111.787 109.503,111.787C111.088,111.787 112.893,110.986 114.821,108.546C115.399,110.586 116.918,111.843 119.497,111.843C122.854,111.843 125.353,109.55 125.353,108.086C125.353,107.556 125.101,107.278 124.697,107.278Z" style="fill:rgb(75,35,84);fill-rule:nonzero;"/>
        <path d="M153.042,88.6C154.821,87.313 156.194,87.224 156.614,86.879C157.257,86.349 156.386,83.686 153.892,83.686C149.912,83.686 147.875,88.656 146.277,93.042C145.26,95.836 144.126,99.295 143.248,102.053C143.233,102.101 143.223,102.067 143.226,102.027C143.657,95.882 144.387,86.149 144.435,85.061C144.46,84.493 144.421,84.196 144.169,84.06C144.057,83.981 143.791,83.963 143.641,83.963C143.106,83.963 142.608,83.984 142.111,84.001C139.771,84 136.55,83.998 135.222,83.998C125.1,83.998 125.858,93.467 132.117,93.467C133.279,93.467 133.311,92.339 132.749,92.058C130.477,90.922 130.009,86.759 137.581,86.759C138.563,86.759 139.16,86.762 139.636,86.767C138.692,90.001 136.912,95.465 134.667,100.274C132.269,105.41 130.907,107.329 127.171,108.288C126.088,108.566 126.164,109.17 126.464,109.878C126.817,110.711 128.181,111.619 129.846,111.619C132.825,111.619 134.39,109.449 135.992,105.082C137.548,100.846 138.858,96.745 139.828,93.569C139.831,93.557 139.826,93.53 139.839,93.532C139.859,93.536 139.837,93.572 139.836,93.592C139.574,100.434 139.312,109.149 139.268,110.738C139.235,111.943 139.713,111.944 140.649,111.539C142.568,110.711 143.213,110.425 143.728,108.863C145.344,103.967 146.889,99.853 148.7,95.264C149.836,92.386 151.563,89.67 153.042,88.6Z" style="fill:rgb(75,35,84);fill-rule:nonzero;"/>
        <path d="M152.815,108.262C149.836,108.262 153.774,97.132 156.449,97.132C158.923,97.132 155.957,108.262 152.815,108.262ZM158.584,94.14C150.619,94.14 146.706,103.38 146.706,107.35C146.706,110.177 148.499,111.922 151.528,111.922C158.191,111.922 162.017,102.835 162.017,98.645C162.017,95.818 160.704,94.14 158.584,94.14Z" style="fill:rgb(75,35,84);fill-rule:nonzero;"/>
        <path d="M179.595,89.307C178.934,89.307 176.595,89.371 173.052,89.493C173.625,88.104 174.089,86.976 174.396,86.21C174.623,85.642 174.511,85.302 173.903,85.302C173.361,85.302 172.427,85.491 171.291,85.793C169.783,86.196 169.601,86.465 168.767,88.218C168.59,88.59 168.382,89.078 168.143,89.672C164.703,89.804 160.659,89.968 156.222,90.165C154.482,90.242 152.057,92.411 154.152,92.411C158.324,92.411 162.839,92.565 166.973,92.693C166.329,94.39 165.545,96.473 164.59,98.931C163.393,102.013 161.674,105.708 161.674,108.245C161.674,110.138 162.962,111.755 165.233,111.755C168.073,111.755 169.246,110.08 168.943,109.134C168.768,108.584 168.262,108.603 167.164,108.603C166.407,108.603 166.142,108.086 166.142,107.506C166.142,106.634 166.551,105.733 167.025,104.497C168.629,100.318 170.301,96.19 171.682,92.821C172.835,92.846 173.925,92.861 174.926,92.861C177.375,92.861 178.333,92.79 179.191,92.134C179.912,91.583 180.251,91.276 180.655,90.771C181.076,90.245 181.261,89.307 179.595,89.307Z" style="fill:rgb(75,35,84);fill-rule:nonzero;"/>
        <path d="M78.742,93.367C80.053,93.367 81.371,92.158 81.687,90.666C82.002,89.175 81.196,87.966 79.886,87.966C78.575,87.966 77.257,89.175 76.941,90.666C76.625,92.158 77.431,93.367 78.742,93.367Z" style="fill:rgb(75,35,84);fill-rule:nonzero;"/>
        <path d="M58.692,108.187C55.789,108.187 60.698,97.207 63.462,97.207C64.529,97.207 64.894,97.911 65.04,98.473C62.778,103.783 60.916,108.187 58.692,108.187ZM41.427,96.677C43.358,96.677 42.184,102.054 37.035,102.054C37.015,102.054 36.997,102.053 36.977,102.053C38.175,99.238 40.152,96.677 41.427,96.677ZM93.221,87.439C94.339,87.439 91.282,95.481 85.637,99.921C88.071,94.031 91.887,87.439 93.221,87.439ZM84.311,108.692C83.676,108.586 83.503,108.169 83.503,107.45C83.503,106.562 83.754,105.343 84.177,103.942C94.574,99.079 101.374,84.179 93.637,84.179C88.498,84.179 82.065,95.613 80.02,103.338C78.875,105.178 76.921,107.96 75.578,107.96C74.517,107.96 74.804,106.558 75.565,104.486C77.345,99.639 79.944,94.654 79.944,94.654C79.944,94.654 78.632,94.099 76.865,94.402C75.7,94.602 75.186,95.195 74.642,96.232C74.576,96.316 74.501,96.441 74.416,96.622C71.047,103.853 68.933,107.96 67.021,107.96C65.677,107.96 66.45,106.482 67.21,104.41C68.99,99.564 71.59,94.579 71.59,94.579C71.59,94.579 70.277,94.023 68.51,94.326C67.399,94.517 66.88,95.067 66.363,96.017C66.014,95.032 65.255,94.04 63.614,94.04C58.627,94.04 54.864,100.469 53.813,104.993C52.786,106.581 51.457,108.263 50.438,108.263C49.428,108.263 49.444,107.39 50.236,105.33C51.504,102.032 53.958,96.32 55.913,91.842C60.819,91.95 65.465,92.053 68.107,92.053C70.556,92.053 71.514,91.983 72.372,91.326C73.093,90.775 73.432,90.468 73.836,89.963C74.257,89.437 74.442,88.499 72.776,88.499C71.863,88.499 65.138,88.722 57.149,89.027C57.748,87.667 58.232,86.579 58.515,85.945C58.687,85.561 58.414,85.137 57.808,85.188C56.88,85.265 56.546,85.39 55.537,85.642C54.022,86.021 53.645,86.466 52.811,88.218C52.696,88.459 52.538,88.8 52.351,89.214C49.167,89.34 45.929,89.475 42.891,89.61C41.151,89.687 39.18,91.604 41.275,91.604C43.898,91.604 47.478,91.665 51.23,91.742C50.577,93.238 49.849,94.948 49.23,96.475C49.161,96.601 49.089,96.749 49.012,96.925C46.475,102.718 42.6,108.793 38.322,108.793C36.657,108.793 35.95,107.691 35.95,106.291C35.95,105.75 36.026,105.164 36.159,104.558C36.321,104.567 36.502,104.573 36.707,104.573C42.815,104.573 46.425,100.816 46.425,97.359C46.425,95.138 44.582,93.834 42.727,93.834C37.691,93.834 31.558,100.37 31.558,106.428C31.558,109.684 33.312,111.843 36.29,111.843C40.292,111.843 43.394,109.39 45.604,106.692C45.485,107.309 45.415,107.907 45.415,108.474C45.415,110.367 46.5,111.755 48.267,111.755C50.265,111.755 51.996,110.539 53.606,108.43C53.929,110.535 55.145,111.755 56.95,111.755C59.063,111.755 60.893,110.136 62.338,108.22C62.421,109.982 63.049,111.755 65.355,111.755C67.002,111.755 68.684,110.874 70.687,108.076C70.742,109.907 71.501,111.831 73.684,111.831C75.791,111.831 77.67,110.328 79.382,108.019C79.543,110.32 80.78,111.692 82.557,111.692C84.387,111.692 85.912,110.506 85.825,109.197C85.77,108.361 84.917,108.793 84.311,108.692Z" style="fill:rgb(75,35,84);fill-rule:nonzero;"/>
    </g>
</svg>
